src/app/client/src/assets/images/Language.svg

<?xml version="1.0" encoding="UTF-8"?>
<svg width="16px" height="16px" viewBox="0 0 16 16" version="1.1" xmlns="http://www.w3.org/2000/svg" xmlns:xlink="http://www.w3.org/1999/xlink">
    <title>AB15BD10-CF51-459B-A486-927E4D2BE38F</title>
    <g id="Digital-Textbooks" stroke="none" stroke-width="1" fill="none" fill-rule="evenodd">
        <g transform="translate(-1155.000000, -46.000000)" fill="#008C36" fill-rule="nonzero" id="Languages">
            <g transform="translate(1139.000000, 30.000000)">
                <g id="Language" transform="translate(16.000000, 16.000000)">
                    <path d="M8,0 C3.581722,0 0,3.581722 0,8 C0,12.418278 3.581722,16 8,16 C12.418278,16 16,12.418278 16,8 C16,5.87826808 15.1571453,3.84343678 13.6568542,2.34314575 C12.1565632,0.842854723 10.1217319,0 8,0 Z M11.5085714,5.14285714 C11.1103392,3.73514785 10.4190379,2.42751735 9.48,1.30571429 C11.5756374,1.77359342 13.3328577,3.19268352 14.2314286,5.14285714 L11.5085714,5.14285714 Z M7.96857143,14.5885714 C6.92080262,13.544717 6.13805193,12.2652772 5.68571429,10.8571429 L10.3142857,10.8571429 C9.86112147,12.2655566 9.07737579,13.5450214 8.02857143,14.5885714 C8.01064365,14.6014469 7.98649921,14.6014469 7.96857143,14.5885714 Z M5.39714286,9.71428571 C5.18760437,8.58103309 5.18760437,7.41896691 5.39714286,6.28571429 L10.6028571,6.28571429 C10.8123956,7.41896691 10.8123956,8.58103309 10.6028571,9.71428571 L5.39714286,9.71428571 Z M1.36,6.28571429 L4.23714286,6.28571429 C4.05058001,7.42095768 4.05058001,8.57904232 4.23714286,9.71428571 L1.36,9.71428571 C1.21492179,9.15443382 1.14195032,8.57834333 1.1428406,8 C1.14195032,7.42165667 1.21492179,6.84556618 1.36,6.28571429 Z M8,1.4 C8.01009821,1.39602014 8.02133036,1.39602014 8.03142857,1.4 C9.08074436,2.44710938 9.86359521,3.73063204 10.3142857,5.14285714 L5.68571429,5.14285714 C6.13887853,3.73444338 6.92262421,2.45497856 7.97142857,1.41142857 C7.97920915,1.40421336 7.98938978,1.40014111 8,1.4 Z M11.7628571,6.28571429 L14.64,6.28571429 C14.9295761,7.41022829 14.9295761,8.58977171 14.64,9.71428571 L11.7628571,9.71428571 C11.94942,8.57904232 11.94942,7.42095768 11.7628571,6.28571429 Z M4.49142857,5.14285714 L1.76857143,5.14285714 C2.66714235,3.19268352 4.42436263,1.77359342 6.52,1.30571429 C5.5820355,2.42823827 4.89086099,3.73562893 4.49142857,5.14285714 Z M4.49142857,10.8571429 C4.88966077,12.2648522 5.58096207,13.5724826 6.52,14.6942857 C4.42436263,14.2264066 2.66714235,12.8073165 1.76857143,10.8571429 L4.49142857,10.8571429 Z M11.5085714,10.8571429 L14.2314286,10.8571429 C13.3328577,12.8073165 11.5756374,14.2264066 9.48,14.6942857 C10.4197999,13.5715076 11.1099915,12.2641348 11.5085714,10.8571429 Z" id="Shape"></path>
                </g>
            </g>
        </g>
    </g>
</svg>

<svg xmlns="http://www.w3.org/2000/svg" width="16" height="16" xmlns:v="https://vecta.io/nano"><path d="M8 0a8 8 0 1 0 0 16 8 8 0 0 0 5.657-13.657A8 8 0 0 0 8 0zm3.51 5.143A10.38 10.38 0 0 0 9.48 1.306c2.096.468 3.853 1.887 4.75 3.837H11.51zM7.97 14.59a9.27 9.27 0 0 1-2.283-3.731h4.63a9.27 9.27 0 0 1-2.286 3.731c-.018.013-.042.013-.06 0zm-2.57-4.874a9.43 9.43 0 0 1 0-3.429h5.206a9.43 9.43 0 0 1 0 3.429H5.397zM1.36 6.286h2.877a10.57 10.57 0 0 0 0 3.429H1.36A6.79 6.79 0 0 1 1.143 8a6.79 6.79 0 0 1 .217-1.714zM8 1.4c.01-.004.02-.004.03 0a9.27 9.27 0 0 1 2.283 3.743h-4.63a9.27 9.27 0 0 1 2.286-3.731c.008-.007.018-.01.03-.01zm3.763 4.886h2.877c.3 1.125.3 2.304 0 3.43h-2.877a10.57 10.57 0 0 0 0-3.429zM4.49 5.143H1.77c.9-1.95 2.656-3.37 4.75-3.837-.938 1.123-1.63 2.43-2.03 3.837zm0 5.714a10.38 10.38 0 0 0 2.029 3.837c-2.096-.468-3.853-1.887-4.75-3.837H4.49zm7.017 0h2.723c-.9 1.95-2.656 3.37-4.75 3.837.94-1.123 1.63-2.43 2.03-3.837z" fill="#008c36"/></svg>
